X: 23250
T: Leaving Copenhagen
R: waltz
M: 3/4
K: Emajor
||ED EA GE|C4 E2|B,2 E2 B2|BA GF ED|
E2 EA GE|C2 c2 d2|e2 c2 A2|GE F2- FE|
cB cd ef|e2 B2 cd|e2 d2- dE|de c2- ce|
B6|B2 A2- AG|F2 E2 D2|C2- CE D/C/B,||
C2 CD/E/ FB,|F2 G2 CD/E/|FB, DF BA|A2 G2 B2|
c2- cd- de|B2- BA GF|ED EA GE|C2- CE D/C/B,|
C2 CD/E/ FB,|F2 G2 CD/E/|FB, DF BA|A2 G2 B2|
f2 e2 c2|B2 e4|F2 E2 D2|C6||

